!!!COM: (Jan) Bohuslav Martinů
!!!OTL: [T527_Mau-w4b1p97m32-45]
**kern	**kern	**dynam	**kern	**dynam	**kern	**dynam	**kern	**dynam	**kern	**dynam	**kern	**kern	**dynam	**kern	**kern	**kern	**dynam	**kern	**dynam	**kern	**dynam
*part12	*part11	*part11	*part10	*part10	*part9	*part9	*part8	*part8	*part7	*part7	*part6	*part6	*part6	*part5	*part4	*part3	*part3	*part2	*part2	*part1	*part1
*staff13	*staff12	*	*staff11	*	*staff10	*	*staff9	*	*staff8	*	*staff7	*staff6	*	*staff5	*staff4	*staff3	*	*staff2	*	*staff1	*
*I"Violoncello	*I"Viola	*	*I"Violin II 2. Div.	*	*I"Violin II 1. Div.	*	*I"Violin I 2. Div.	*	*I"Violin I 1. Div.	*	*I"Harp	*	*	*I"Timpani	*I"Bassoon I	*I"Clarinets in Bb I.II.	*	*I"Flute III.	*	*I"Flutes I.II.	*
*I'Vc.	*I'Vla.	*	*I'Vln. II	*	*I'Vln. II	*	*I'Vln. I	*	*I'Vln. I	*	*I'Hp.	*	*	*I'Timp.	*I'1.Bsn.	*I'1.2.Cl.	*	*I'3.Fl.	*	*I'1.2.Fl.	*
!!pagebreak:original
*clefF4	*clefC3	*	*clefG2	*	*clefG2	*	*clefG2	*	*clefG2	*	*clefF4	*clefG2	*	*clefF4	*clefF4	*clefG2	*	*clefG2	*	*clefG2	*
*	*	*	*	*	*	*	*	*	*	*	*	*	*	*	*	*ITrd1c2	*	*	*	*	*
*k[]	*k[]	*	*k[]	*	*k[]	*	*k[]	*	*k[]	*	*k[]	*k[]	*	*k[]	*k[]	*k[]	*	*k[]	*	*k[]	*
*C:	*C:	*	*C:	*	*C:	*	*C:	*	*C:	*	*C:	*C:	*	*C:	*C:	*C:	*	*C:	*	*C:	*
*M4/4	*M4/4	*	*M4/4	*	*M4/4	*	*M4/4	*	*M4/4	*	*M4/4	*M4/4	*	*M4/4	*M4/4	*M4/4	*	*M4/4	*	*M4/4	*
!LO:TX:b:t=	!	!	!	!	!	!	!	!	!	!	!	!	!	!	!	!	!	!	!	!	!
*Xtuplet	*	*	*	*	*	*	*	*	*	*	*	*	*	*	*	*	*	*	*	*	*
!LO:TX:a:t=[pizz.]	!	!	!	!	!	!	!	!	!	!	!	!	!	!	!	!	!	!	!	!	!
!LO:TX:b:t=[mf]	!LO:TX:b:t=	!	!	!	!	!	!	!	!	!	!	!	!	!	!	!	!	!	!	!	!
*	*Xtuplet	*	*	*	*	*	*	*	*	*	*	*	*	*	*	*	*	*	*	*	*
!	!LO:TX:a:t=[pizz.]	!	!	!	!	!	!	!	!	!	!	!	!	!	!	!	!	!	!	!	!
!	!LO:TX:b:t=[f]	!	!LO:TX:b:t=	!	!	!	!	!	!	!	!	!	!	!	!	!	!	!	!	!	!
*	*	*	*Xtuplet	*	*	*	*	*	*	*	*	*	*	*	*	*	*	*	*	*	*
!	!	!	!LO:TX:a:t=[pizz.]	!	!	!	!	!	!	!	!	!	!	!	!	!	!	!	!	!	!
!	!	!	!LO:TX:b:t=[f]	!	!LO:TX:b:t=	!	!	!	!	!	!	!	!	!	!	!	!	!	!	!	!
*	*	*	*	*	*Xtuplet	*	*	*	*	*	*	*	*	*	*	*	*	*	*	*	*
!	!	!	!	!	!LO:TX:a:t=[pizz.]	!	!LO:TX:a:t=pizz.	!	!	!	!	!	!	!	!	!	!	!	!	!	!
!	!	!	!	!	!LO:TX:b:t=[f]	!	!LO:TX:b:t=	!	!	!	!	!	!	!	!	!	!	!	!	!	!
*	*	*	*	*	*	*	*Xtuplet	*	*	*	*	*	*	*	*	*	*	*	*	*	*
!	!	!	!	!	!	!	!	!	!	!	!	!	!	!	!	!	!	!	!	!LO:TX:a:B:t=[Poco Meno]	!
!	!	!	!	!	!	!	!	!	!	!	!	!LO:TX:b:t=	!	!	!	!	!	!	!	!LO:TX:b:t=[pp]	!
!	!	!	!	!	!	!	!	!	!	!	!	!LO:TX:a:B:t=[Poco Meno]	!	!LO:TX:b:t=[pp]	!LO:TX:b:t=[pp]	!LO:TX:b:t=[pp]	!	!LO:TX:b:t=[pp]	!	!LO:TX:a:t=a 2	!
!	!	!	!	!	!	!	!	!	!LO:TX:b:t=	!	!	!LO:TX:b:t=	!	!LO:TX:b:t=	!LO:TX:b:t=	!LO:TX:b:t=	!	!LO:TX:b:t=	!	!LO:TX:b:t=	!
16%3FF	16%3fL	.	16%3fL	.	16%3r	.	16%3fff	f	4%3r	.	4%3r	4%3r	.	4r	[2.G	[2.g [2.gg	.	[2.g	.	[2.gg	.
16%3r	16%3fJ	.	16%3fJ	.	16%3cc	.	16%3r	.	.	.	.	.	.	.	.	.	.	.	.	.	.
.	.	.	.	.	.	.	.	.	.	.	.	.	.	8FFL	.	.	.	.	.	.	.
16%3r	16%3gL	.	16%3gL	.	16%3ddL	.	16%3ccc	.	.	.	.	.	.	8FFJ	.	.	.	.	.	.	.
.	.	.	.	.	.	.	.	.	.	.	.	.	.	4FF	.	.	.	.	.	.	.
16%3C	16%3cJ	.	16%3cJ	.	16%3ggJ	.	16%3r	.	.	.	.	.	.	.	.	.	.	.	.	.	.
=1	=1	=1	=1	=1	=1	=1	=1	=1	=1	=1	=1	=1	=1	=1	=1	=1	=1	=1	=1	=1	=1
16%3F	16%3fL	.	16%3fL	.	16%3ff	.	16%3bb-XL	.	4%3r	.	4%3r	4%3r	.	4r	4G]	4g] 4gg]	.	4g]	.	4gg]	.
16%3r	16%3fJ	.	16%3fJ	.	16%3r	.	16%3dddJ	.	.	.	.	.	.	.	.	.	.	.	.	.	.
.	.	.	.	.	.	.	.	.	.	.	.	.	.	8FFL	(4B-X	(4b- 4bb-	.	(4b-X	.	(4bb-X	.
8%3r	16%3e-XL	.	16%3e-XL	.	16%3ee-XL	.	16%3cccL	.	.	.	.	.	.	8FFJ	.	.	.	.	.	.	.
.	.	.	.	.	.	.	.	.	.	.	.	.	.	4FF	8GL	8gL 8gg	.	8gL	.	8ggL	.
.	16%3B-XJ	.	16%3B-XJ	.	16%3bb-XJ	.	16%3ggJ	.	.	.	.	.	.	.	.	.	.	.	.	.	.
.	.	.	.	.	.	.	.	.	.	.	.	.	.	.	8FJ)	8fJ 8ff)	.	8fJ)	.	8ffJ)	.
=2	=2	=2	=2	=2	=2	=2	=2	=2	=2	=2	=2	=2	=2	=2	=2	=2	=2	=2	=2	=2	=2
16%3F	16%3fL	.	16%3fL	.	16%3r	.	16%3fff	.	4%3r	.	4%3r	4%3r	.	4r	(8E-XL	(8e-L 8ee-	.	(8e-XL	.	(8ee-XL	.
.	.	.	.	.	.	.	.	.	.	.	.	.	.	.	8CJ	8cJ 8cc	.	8cJ	.	8ccJ	.
16%3r	16%3fJ	.	16%3fJ	.	16%3cc	.	16%3r	.	.	.	.	.	.	.	.	.	.	.	.	.	.
.	.	.	.	.	.	.	.	.	.	.	.	.	.	8FFL	4.BB-X)	4.B- 4.b-)	.	4.b-X)	.	4.b-X)	.
16%3r	16%3gL	.	16%3gL	.	16%3ddL	.	16%3ccc	.	.	.	.	.	.	8FFJ	.	.	.	.	.	.	.
.	.	.	.	.	.	.	.	.	.	.	.	.	.	4FF	.	.	.	.	.	.	.
16%3C	16%3cJ	.	16%3cJ	.	16%3ggJ	.	16%3r	.	.	.	.	.	.	.	.	.	.	.	.	.	.
.	.	.	.	.	.	.	.	.	.	.	.	.	.	.	(8GG	(8G 8g	.	(8g	.	(8g	.
=3	=3	=3	=3	=3	=3	=3	=3	=3	=3	=3	=3	=3	=3	=3	=3	=3	=3	=3	=3	=3	=3
16%3F	16%3fL	.	16%3fL	.	16%3ff	.	16%3bb-XL	.	4%3r	.	4%3r	4%3r	.	4r	2C)	2c 2cc)	.	2c)	.	2cc)	.
16%3r	16%3fJ	.	16%3fJ	.	16%3r	.	16%3dddJ	.	.	.	.	.	.	.	.	.	.	.	.	.	.
.	.	.	.	.	.	.	.	.	.	.	.	.	.	8FFL	.	.	.	.	.	.	.
16%3C	16%3e-XL	.	16%3e-XL	.	16%3ee-XL	.	16%3cccL	.	.	.	.	.	.	8FFJ	.	.	.	.	.	.	.
.	.	.	.	.	.	.	.	.	.	.	.	.	.	4FF	(8DL	(8dL 8dd	.	(8dL	.	(8ddL	.
16%3r	16%3B-XJ	.	16%3B-XJ	.	16%3bb-XJ	.	16%3ggJ	.	.	.	.	.	.	.	.	.	.	.	.	.	.
.	.	.	.	.	.	.	.	.	.	.	.	.	.	.	8FJ	8fJ 8ff	.	8fJ	.	8ffJ	.
!!pagebreak:original
=4	=4	=4	=4	=4	=4	=4	=4	=4	=4	=4	=4	=4	=4	=4	=4	=4	=4	=4	=4	=4	=4
*	*	*	*	*	*	*	*	*	*8va	*	*	*	*	*	*	*	*	*	*	*	*
!	!	!	!	!	!	!	!	!	!LO:TX:a:t=pizz.	!	!	!	!	!	!	!	!	!	!	!	!
16%3F	16%3fL	.	16%3fL	.	16%3r	.	16%3fff	.	16%3gggL	f	4%3r	4%3r	.	4r	2C)	2c 2cc)	.	2c)	.	2cc)	.
16%3r	16%3fJ	.	16%3fJ	.	16%3cc	.	16%3r	.	16%3bbb-XJ	.	.	.	.	.	.	.	.	.	.	.	.
.	.	.	.	.	.	.	.	.	.	.	.	.	.	8FFL	.	.	.	.	.	.	.
16%3r	16%3gL	.	16%3gL	.	16%3ddL	.	16%3ccc	.	16%3fff	.	.	.	.	8FFJ	.	.	.	.	.	.	.
.	.	.	.	.	.	.	.	.	.	.	.	.	.	4FF	(8BB-XL	(8B-L 8b-	.	4r	.	(8b-XL	.
16%3C	16%3cJ	.	16%3cJ	.	16%3ggJ	.	16%3r	.	16%3r	.	.	.	.	.	.	.	.	.	.	.	.
.	.	.	.	.	.	.	.	.	.	.	.	.	.	.	8GGJ	8GJ 8g	.	.	.	8gJ	.
=5	=5	=5	=5	=5	=5	=5	=5	=5	=5	=5	=5	=5	=5	=5	=5	=5	=5	=5	=5	=5	=5
16%3F	16%3fL	.	16%3fL	.	16%3ff	.	16%3bb-XL	.	16%3eee-XL	.	4%3r	4%3r	.	4r	2C)	2c 2cc)	.	2c	.	2cc)	.
16%3r	16%3fJ	.	16%3fJ	.	16%3r	.	16%3dddJ	.	16%3gggJ	.	.	.	.	.	.	.	.	.	.	.	.
.	.	.	.	.	.	.	.	.	.	.	.	.	.	8FFL	.	.	.	.	.	.	.
16%3C	16%3e-XL	.	16%3e-XL	.	16%3ee-XL	.	16%3cccL	.	16%3fffL	.	.	.	.	8FFJ	.	.	.	.	.	.	.
.	.	.	.	.	.	.	.	.	.	.	.	.	.	4FF	(8DL	(8dL 8dd	.	(8dL	.	(8ddL	.
16%3r	16%3B-XJ	.	16%3B-XJ	.	16%3bb-XJ	.	16%3ggJ	.	16%3fffJ	.	.	.	.	.	.	.	.	.	.	.	.
.	.	.	.	.	.	.	.	.	.	.	.	.	.	.	8FJ	8fJ 8ff	.	8fJ	.	8ffJ	.
=6	=6	=6	=6	=6	=6	=6	=6	=6	=6	=6	=6	=6	=6	=6	=6	=6	=6	=6	=6	=6	=6
16%3FF	16%3fL	.	16%3fL	.	16%3r	.	16%3fff	.	16%3gggL	.	4%3r	4%3r	.	4r	8GL)	8gL 8gg)	.	8gL)	.	8ggL)	.
.	.	.	.	.	.	.	.	.	.	.	.	.	.	.	8FJ	8fJ 8ff	.	8fJ	.	8ffJ	.
16%3r	16%3fJ	.	16%3fJ	.	16%3cc	.	16%3r	.	16%3bbb-XJ	.	.	.	.	.	.	.	.	.	.	.	.
.	.	.	.	.	.	.	.	.	.	.	.	.	.	8FFL	4D	4d 4dd	.	4d	.	4dd	.
16%3r	16%3gL	.	16%3gL	.	16%3ddL	.	16%3ccc	.	16%3fff	.	.	.	.	8FFJ	.	.	.	.	.	.	.
.	.	.	.	.	.	.	.	.	.	.	.	.	.	4FF	12CL	12cL 12cc	.	4r	.	12ccL	.
*	*	*	*	*	*	*	*	*	*X8va	*	*	*	*	*	*	*	*	*	*	*	*
16%3C	16%3cJ	.	16%3cJ	.	16%3ggJ	.	16%3r	.	16%3r	.	.	.	.	.	.	.	.	.	.	.	.
.	.	.	.	.	.	.	.	.	.	.	.	.	.	.	12BB-X	12B- 12b-	.	.	.	12b-X	.
.	.	.	.	.	.	.	.	.	.	.	.	.	.	.	12GGJ	12GJ 12g	.	.	.	12gJ	.
=7	=7	=7	=7	=7	=7	=7	=7	=7	=7	=7	=7	=7	=7	=7	=7	=7	=7	=7	=7	=7	=7
16%3FF	16%3fL	.	16%3fL	.	16%3ff	.	16%3bb-XL	.	16%3eee-XL	.	4%3r	4%3r	.	4r	2C	2c 2cc	.	2c	.	2cc	.
16%3r	16%3fJ	.	16%3fJ	.	16%3r	.	16%3dddJ	.	16%3gggJ	.	.	.	.	.	.	.	.	.	.	.	.
.	.	.	.	.	.	.	.	.	.	.	.	.	.	8FFL	.	.	.	.	.	.	.
8%3r	16%3e-X	.	16%3e-X	.	16%3ee-X	.	16%3ccc	.	16%3fff	.	.	.	.	8FFJ	.	.	.	.	.	.	.
.	.	.	.	.	.	.	.	.	.	.	.	.	.	4FF	4r	4c#X 4cc#X	.	4c#X	.	4cc#X	.
.	16%3r	.	16%3r	.	16%3r	.	16%3r	.	16%3r	.	.	.	.	.	.	.	.	.	.	.	.
!!pagebreak:original
=	=	=	=	=	=	=	=	=	=	=	=	=	=	=	=	=	=	=	=	=	=
*	*Xtuplet	*	*	*	*	*	*	*	*	*	*	*	*	*	*	*	*	*	*	*	*
*^	*	*	*	*	*	*	*	*	*	*	*^	*	*	*	*	*	*	*	*	*	*
!	!	!LO:TX:a:t=arco	!	!	!	!	!	!	!	!	!	!	!	!	!	!	!	!	!	!	!	!	!
!	!	!LO:TX:b:t=	!	!	!	!	!	!	!	!	!	!	!	!	!	!	!	!	!	!	!	!	!
*v	*v	*	*	*	*	*	*	*	*	*	*	*v	*v	*	*	*	*	*	*	*	*	*	*
*	*	*	*Xtuplet	*	*	*	*	*	*	*	*	*	*	*	*	*	*	*	*	*	*
*^	*	*	*	*	*	*	*	*	*	*	*^	*	*	*	*	*	*	*	*	*	*
!	!	!	!	!LO:TX:b:t=	!	!	!	!	!	!	!	!	!	!	!	!	!	!	!	!	!	!	!
*v	*v	*	*	*	*	*	*	*	*	*	*	*v	*v	*	*	*	*	*	*	*	*	*	*
*	*	*	*	*	*Xtuplet	*	*	*	*	*	*	*	*	*	*	*	*	*	*	*	*
*^	*	*	*	*	*	*	*	*	*	*	*^	*	*	*	*	*	*	*	*	*	*
!	!	!	!	!	!	!LO:TX:a:t=arco	!	!	!	!	!	!	!	!	!	!	!	!	!	!	!	!	!
!	!	!	!	!	!	!LO:TX:b:t=	!	!	!	!	!	!	!	!	!	!	!	!	!	!	!	!	!
*v	*v	*	*	*	*	*	*	*	*	*	*	*v	*v	*	*	*	*	*	*	*	*	*	*
*	*	*	*	*	*	*	*Xtuplet	*	*	*	*	*	*	*	*	*	*	*	*	*	*
*^	*	*	*	*	*	*	*	*	*	*	*^	*	*	*	*	*	*	*	*	*	*
!	!	!	!	!	!	!	!	!LO:TX:b:t=	!	!	!	!	!	!	!	!	!	!	!	!	!	!	!
*v	*v	*	*	*	*	*	*	*	*	*	*	*v	*v	*	*	*	*	*	*	*	*	*	*
*	*	*	*	*	*	*	*	*	*Xtuplet	*	*	*	*	*	*	*	*	*	*	*	*
*^	*	*	*	*	*	*	*	*	*	*	*^	*	*	*	*	*	*	*	*	*	*
!	!	!	!	!	!	!	!	!	!	!LO:TX:a:t=arco	!	!	!	!	!	!	!	!	!	!	!	!	!
!	!	!	!	!	!	!	!	!	!	!LO:TX:b:t=	!	!	!	!LO:TX:b:t=	!	!	!	!	!	!	!	!	!
*v	*v	*	*	*	*	*	*	*	*	*	*	*v	*v	*	*	*	*	*	*	*	*	*	*
*	*	*	*	*	*	*	*	*	*	*	*	*Xtuplet	*	*	*	*	*	*	*	*	*
*^	*	*	*	*	*	*	*	*	*	*	*^	*	*	*	*	*	*	*	*	*	*
!	!	!	!	!	!	!	!	!	!	!	!	!	!	!	!	!	!	!	!	!	!	!LO:TX:t=[quarter]=120	!
!	!	!	!	!	!	!	!	!	!	!	!	!	!	!LO:TX:t=[quarter]=120	!	!	!	!LO:TX:a:t=I.	!	!	!	!LO:TX:a:B:t=Poco allegro giusto	!
!	!	!	!	!	!	!	!	!	!	!	!	!	!	!LO:TX:a:B:t=Poco allegro giusto	!	!LO:TX:b:t=	!LO:TX:b:t=	!LO:TX:b:t=	!	!LO:TX:b:t=	!	!LO:TX:b:t=	!
6r	6EE	3.B	mf	6r	.	3.b	mf	6r	.	3.b	mf	6r	6EE	6r	f	2r	2r	4r	.	8f#XL	mf	8bL 8ff#X	mf
.	.	.	.	.	.	.	.	.	.	.	.	.	.	.	.	.	.	.	.	8f#J	.	8bJ 8ff#	.
!	!	!	!	!LO:TX:a:t=pizz.	!	!	!	!LO:TX:a:t=pizz.	!	!	!	!	!	!	!	!	!	!	!	!	!	!	!
6F#X 6B	6EE	.	.	6B 6d	mf	.	.	6B 6d	mf	.	.	6F#X 6B	6EE	6r	.	.	.	.	.	.	.	.	.
.	.	.	.	.	.	.	.	.	.	.	.	.	.	.	.	.	.	4f#Xt	p	8f#L	.	8bL 8ff#	.
6r	6EE	.	.	6d 6b	.	.	.	6d 6b	.	.	.	6r	6EE	6B 6d	.	.	.	.	.	.	.	.	.
.	.	.	.	.	.	.	.	.	.	.	.	.	.	.	.	.	.	.	.	8eJ	.	8eeJ 8aa	.
=	=	=	=	=	=	=	=	=	=	=	=	=	=	=	=	=	=	=	=	=	=	=	=
6r	6EE	(6A	.	6r	.	(6a	.	6r	.	(6a	.	6r	6EE	6e 6g 6b	.	2r	2r	4r	.	8f#XL	.	8bL 8ff#X	.
.	.	.	.	.	.	.	.	.	.	.	.	.	.	.	.	.	.	.	.	8f#J	.	8bJ 8ff#	.
6BB 6E	6EE	6G	.	6G 6e	.	6g	.	6G 6e	.	6g	.	6BB 6E	6EE	6r	.	.	.	.	.	.	.	.	.
.	.	.	.	.	.	.	.	.	.	.	.	.	.	.	.	.	.	4et	.	8gL	.	8aL 8dd	.
6r	6EE	6A)	.	6G 6e 6b	.	6a)	.	6G 6e 6b	.	6a)	.	6r	6EE	6e 6g 6b	.	.	.	.	.	.	.	.	.
.	.	.	.	.	.	.	.	.	.	.	.	.	.	.	.	.	.	.	.	8gJ	.	8aJ 8ee	.
=	=	=	=	=	=	=	=	=	=	=	=	=	=	=	=	=	=	=	=	=	=	=	=
6r	6EE	3.B	.	6r	.	3.b	.	6r	.	3.b	.	6r	6EE	6d 6f#X	.	2r	2r	4r	.	8f#XL	.	8bL 8ff#X	.
.	.	.	.	.	.	.	.	.	.	.	.	.	.	.	.	.	.	.	.	8f#J	.	8bJ 8ff#	.
6F#X 6B	6EE	.	.	6B 6d	.	.	.	6B 6d	.	.	.	6F#X 6B	6EE	6r	.	.	.	.	.	.	.	.	.
.	.	.	.	.	.	.	.	.	.	.	.	.	.	.	.	.	.	4f#Xt	.	8f#L	.	8bL 8ff#	.
6r	6EE	.	.	6d 6b	.	.	.	6d 6b	.	.	.	6r	6EE	6d 6f#	.	.	.	.	.	.	.	.	.
.	.	.	.	.	.	.	.	.	.	.	.	.	.	.	.	.	.	.	.	8eJ	.	8eeJ 8aa	.
=	=	=	=	=	=	=	=	=	=	=	=	=	=	=	=	=	=	=	=	=	=	=	=
6r	6EE	(6A	.	6r	.	(6a	.	6r	.	(6a	.	6r	6EE	6e 6g 6b	.	2r	2r	4r	.	8f#XL	.	8bL 8ff#X	.
.	.	.	.	.	.	.	.	.	.	.	.	.	.	.	.	.	.	.	.	8f#J	.	8bJ 8ff#	.
6BB 6E	6EE	6G	.	6G 6e	.	6g	.	6G 6e	.	6g	.	6BB 6E	6EE	6r	.	.	.	.	.	.	.	.	.
.	.	.	.	.	.	.	.	.	.	.	.	.	.	.	.	.	.	4et	.	8gL	.	8aL 8dd	.
6r	6EE	6A)	.	6G 6e 6b	.	6a)	.	6G 6e 6b	.	6a)	.	6r	6EE	6e 6g 6b	.	.	.	.	.	.	.	.	.
.	.	.	.	.	.	.	.	.	.	.	.	.	.	.	.	.	.	.	.	8gJ	.	8aJ 8ee	.
=	=	=	=	=	=	=	=	=	=	=	=	=	=	=	=	=	=	=	=	=	=	=	=
6r	6EE	(6B	.	6r	.	(6b	.	6r	.	(6b	.	6r	6EE	6d 6f#X	.	2r	2r	4r	.	8f#XL	.	8bL 8ff#X	.
.	.	.	.	.	.	.	.	.	.	.	.	.	.	.	.	.	.	.	.	8f#J	.	8bJ 8ff#	.
6F#X 6B	6EE	6.d	.	6B 6d	.	6.dd	.	6B 6d	.	6.dd	.	6F#X 6B	6EE	6d 6f# 6b	.	.	.	.	.	.	.	.	.
.	.	.	.	.	.	.	.	.	.	.	.	.	.	.	.	.	.	4bt	.	8aL	.	8eeL 8aa	.
6r	6EE	.	.	6d 6b	.	.	.	6d 6b	.	.	.	6r	6EE	6r	.	.	.	.	.	.	.	.	.
.	.	.	.	.	.	.	.	.	.	.	.	.	.	.	.	.	.	.	.	8gJ	.	8ff#XJ 8bb	.
.	.	12B)	.	.	.	12b)	.	.	.	12b)	.	.	.	.	.	.	.	.	.	.	.	.	.
=8	=8	=8	=8	=8	=8	=8	=8	=8	=8	=8	=8	=8	=8	=8	=8	=8	=8	=8	=8	=8	=8	=8	=8
6r	6EE	(3A	.	6r	.	(3a	.	6r	.	(3a	.	6r	6EE	6e 6g	.	2r	2r	4r	.	8f#XL	.	8bL 8ff#X	.
.	.	.	.	.	.	.	.	.	.	.	.	.	.	.	.	.	.	.	.	8f#J	.	8bJ 8ff#	.
6BB 6E	6EE	.	.	6G 6e	.	.	.	6G 6e	.	.	.	6BB 6E	6EE	6e 6g 6b 6ee	.	.	.	.	.	.	.	.	.
.	.	.	.	.	.	.	.	.	.	.	.	.	.	.	.	.	.	4gT	.	8gL	.	8aL 8ee	.
6r	6EE	6G)	.	6G 6e 6b	.	6b)	.	6G 6e 6b	.	6b)	.	6r	6EE	6r	.	.	.	.	.	.	.	.	.
.	.	.	.	.	.	.	.	.	.	.	.	.	.	.	.	.	.	.	.	8eJ	.	8ggJ 8ddd	.
*v	*v	*	*	*	*	*	*	*	*	*	*	*v	*v	*	*	*	*	*	*	*	*	*	*
=	=	=	=	=	=	=	=	=	=	=	=	=	=	=	=	=	=	=	=	=	=
*-	*-	*-	*-	*-	*-	*-	*-	*-	*-	*-	*-	*-	*-	*-	*-	*-	*-	*-	*-	*-	*-
!!!system-decoration: [(s1,s2,s3,s4)][(s5)][({(s6,s7)})][([(s8,s9)][(s10,s11)]s12,s13)]
